X:1
T:Where Hast Thou Been Today?
M:3/4
L:1/4
K:Bb
 D G A| B3/2 A/2 G| G D ^F| =E2- D| D G A| B3/2 A/2 G| G D D| G2 B/2c/2|\
 d/2d/2 e d| c AA/2-c/2| B A G| A2 D/2D/2| D G A| B3/2 A/2 G| D G ^F|\
 G3|
